!!!COM: Bach, Johann Sebastian
!!!OPR: Joh. Seb. Bachs vierstimmige Choralgesänge
!!!XEN: Four-part Chorales
!!!OTL: 31. Christus ist erstanden
!!!SCT: BWV 284
!!!SCA: Thematisch-systematisches Verzeichnis der musikalischen Werke Johann Sebastian Bach: Bach-Werke-Verzeichnis (Schmieder)
!!!YOR: Bach Gesellschaft Edition xxxix
!!!ENC: Steven Rasmussen
!!!CDT: 1685/3//-1750/7/28/
!!!OCY: Deutschland
!!!YEC: Copyright (c) 1994, 2000 Center for Computer Assisted Research in the Humanities
!!!YEM: Rights to all derivative editions reserved
!!!YEN: United States of America
**kern	**silbe	**kern	**kern	**silbe	**kern	**silbe
*I:[SOPRANO]	*I:[SOPRANO]	*I:[ALTO]	*I:[TENORE]	*I:[TENORE]	*I:[BASSO]	*I:[BASSO]
*clefG2	*	*clefG2	*clefGv2	*	*clefF4	*
*k[]	*	*k[]	*k[]	*	*k[]	*
*C:	*	*C:	*C:	*	*C:	*
*M4/4	*	*M4/4	*M4/4	*	*M4/4	*
=1-	=1-	=1-	=1-	=1-	=1-	=1-
4cc	Chri-	4g	4e	.	4c	.
4g	-stus	4g	4d	.	4B	.
4a	ist	8gL	4c	.	4A	.
.	.	8f#J	.	.	.	.
4b	er-	4g	4d	.	8GL	.
.	.	.	.	.	8FJ	.
=2	=2	=2	=2	=2	=2	=2
2cc	-stan-	4.g	8cL	.	4E	.
.	.	.	8B-J	.	.	.
.	.	.	4A	.	4F	.
.	.	8f	.	.	.	.
4cc;	-den,	(8fL	4G;	.	4C;	.
.	.	8e;J)	.	.	.	.
4g	hat	4e	4c	.	8cL	.
.	.	.	.	.	8B-J	.
=3	=3	=3	=3	=3	=3	=3
4cc	Ã¼-	8eL	4c	.	4A	.
.	.	8f#J	.	.	.	.
4b-	-ber-	4g	4d	.	4G	.
2a	-wun-	4g	4e-	.	4C	.
.	.	4f#	8dL	.	4D	.
.	.	.	8cJ	.	.	.
=4	=4	=4	=4	=4	=4	=4
2g;	-den;	2d;	2B-;	.	2GG;	.
4g	Gnad'	(8d	4B-	.	4G	.
.	.	4e-)	.	.	.	.
4a	ist	.	4c	.	4F#	.
.	.	8d	.	.	.	.
=5	=5	=5	=5	=5	=5	=5
4b-	nun	8dL	8B-L	.	4G	.
.	.	8b-J	8GJ	.	.	.
4cc	vor-	8aL	4e-	.	4C	.
.	.	8gJ	.	.	.	.
4b-	-han-	8f#	[4d	.	4D	.
.	.	4g	.	.	.	.
4a	.	.	8.dL]	.	4DD	.
.	.	8f#	.	.	.	.
.	.	.	16cJk	.	.	.
=6	=6	=6	=6	=6	=6	=6
2g;	-den,	2d;	2B-;	.	2GG;	.
4g	Wahr-	8eL	4c	.	8CL	.
.	.	8fJ	.	.	8DJ	.
4cc	-heit	4g	8cL	.	8EL	.
.	.	.	8dJ	.	8FJ	.
=7	=7	=7	=7	=7	=7	=7
4cc	wird	4g	8eL	wird	4G	wird
.	.	.	16dL	.	.	.
.	.	.	16cJJ	.	.	.
4b	fun-	4g	8dL	fun-	4GG	fun-
.	.	.	[8fJ	.	.	.
2cc;	-den.	2g;	8fL]	.	2C;	-den.
.	.	.	16eL	.	.	.
.	.	.	16dJJ	.	.	.
.	.	.	4e;	-den.	.	.
=8	=8	=8	=8	=8	=8	=8
4cc	Da-	4a	4f	.	8FL	.
.	.	.	.	.	8GJ	.
4cc	-rum,	8aL	4f	.	8FL	.
.	.	8gJ	.	.	8EJ	.
4dd	lie-	8fL	8fL	.	8DL	.
.	.	8gJ	8eJ	.	8EJ	.
4dd	-ben	4a	8dL	.	8FL	.
.	.	.	8eJ	.	8GJ	.
=9	=9	=9	=9	=9	=9	=9
4cc	Leu-	4a	4.f	.	8AL	.
.	.	.	.	.	8F	.
4b-	.	8b-L	.	.	8G	.
.	.	8gJ	8e	.	8CJ	.
2a;	-te,	2f;	2c;	.	2F;	.
=10	=10	=10	=10	=10	=10	=10
4g	freut	4e	4c	.	8cL	.
.	.	.	.	.	8B-J	.
4a	euch	8eL	4c	.	4A	.
.	.	8f#J	.	.	.	.
4b-	heu-	4.g	4d	.	8GL	.
.	.	.	.	.	8BB-	.
4a	.	.	8e-L	.	8C	.
.	.	8f#	16dL	.	8DJ	.
.	.	.	16cJJ	.	.	.
=11	=11	=11	=11	=11	=11	=11
2g;	-te,	2g;	2B-;	.	2E-;	.
4b-	lo-	8dL	8B-L	.	4G	.
.	.	8b-J	8dJ	.	.	.
4cc	-bet	8b-L	4f	.	4F	.
.	.	8aJ	.	.	.	.
=12	=12	=12	=12	=12	=12	=12
4dd	eu-	4b-	4f	.	8B-L	.
.	.	.	.	.	8AJ	.
8ee-L	-ren	4b-	8e-L	.	8GL	.
8ddJ	.	.	8fJ	.	8FJ	.
2cc	Her-	4b-	8gL	.	8E-L	.
.	.	.	8e-	.	8CJ	.
.	.	4a	8c	.	4F	.
.	.	.	8fJ	.	.	.
=13	=13	=13	=13	=13	=13	=13
2dd;	-ren,	2b-;	2f;	.	2BB-;	.
4dd	Je-	4.b-	4f	.	4B-	.
4cc	-sum,	.	4f	.	4F	.
.	.	8a	.	.	.	.
=14	=14	=14	=14	=14	=14	=14
4dd	den	4b-	4f	.	8B-L	.
.	.	.	.	.	8AJ	.
4cc	KÃ¶-	4a	8e-L	.	8GL	.
.	.	.	8dJ	.	8F#J	.
4b-	-nig	4g	4d	.	8GL	.
.	.	.	.	.	8AJ	.
4g	der	4e	4c	.	8B-L	.
.	.	.	.	.	8cJ	.
=15	=15	=15	=15	=15	=15	=15
4a	Eh-	8fL	4c	.	4F	.
.	.	8e	.	.	.	.
4b	.	8d	4G	.	4G	.
.	.	8fJ	.	.	.	.
2cc;	-ren.	2e;	2G;	.	2C;	.
==|!	==|!	==|!	==|!	==|!	==|!	==|!
*-	*-	*-	*-	*-	*-	*-
!!!RWG: Key is interpreted using the Humdrum key tool.
!!!END: 1994/05/11
!!!EMD: Converted from MuseData to Humdrum Dec 19, 2000, by Andreas Kornstaedt using muse2kern.
!!!EED: Craig Stuart Sapp
!!!EEV: 2024/03/31
!!!ONB: Some non-unicode characters
